X:1
T:Light Of The Seven
T: Chaos is a Ladder (Advanced Piano Solo)
T: Game Of Thrones OST Season 3 Episode 6
T: 
T: Composed by Ramin Djawadi Piano arrangement by Nicolas Del Gallo Full playthrough and more at https://www.youtube.com/c/NDGmusic If you want to donate, please check out my patreon ☺ https://www.patreon.com/ndg 
C:Ramin Djawadi
%%score { ( 1 4 ) | ( 2 3 ) }
L:1/8
Q:1/4=60
M:4/4
K:D
V:1 treble nm="Piano" snm="Pno."
V:4 treble 
V:2 bass 
V:3 bass 
V:1
"^Pesante (\n)\n\n"!p! z8 | z8 |!8vb(! B,4 G,4 | [F,,F,]8 | z8 |[M:6/4] D4 B,4 G,4 | %6
[M:4/4] [F,,F,]8 | B,4 [C,C]4 | G,4 F,4 | [=C,,=C,]8 | !arpeggio!!>![B,,F,B,]4 [G,,D,G,]4 | %11
 [F,,C,F,]8 | [D,B,D]4 [B,,G,B,]4 | [G,,B,,G,]4 [F,,B,,F,]4 | [D,,D,]8 || %15
[Q:1/4=65] B,2 G,2 F,2 D2 | B,2 G,2 F,2 [G,B,]2 | [F,C]2 G,2 F,2 D2 | B,2 G,2 F,2 [G,B,]2 | %19
 [F,C]2 G,2 F,2 [G,D]2 |"_cresc." [F,B,]2 G,2 F,2 [^A,,^A,]2 | B,2 G,2 F,2 [D,D]2 | %22
 [B,,B,]2 [G,,G,]2 [F,,F,]2 [D,,D,]2 | %23
 [B,,,B,,]2 z2 (3B,,,B,,,B,,, B,,,!8vb)!(7:4:7B,/4C/4D/4E/4F/4G/4A/4 | %24
 [B,DFB]2 [G,B,DG]2 [F,B,DF]2 [DGBd]2 | [B,DFB]2 [G,B,DG]2 [F,B,DF]2 [B,DGB]2 | %26
 [CDGc]2 [G,CDG]2 [F,CDF]2 [DGd]2 | [B,DFB]2 [G,B,DG]2 [F,B,DF]2 [Be][gb] | %28
 [cdgc']2 [GBdg]2 [FBdf]2 [dfbd']2 | [Bdfb]2 [GBdg]2 [FBdf]2 [Bdgb]2 | %30
 [cdgc']2 [GBdg]2 [FBdf]2 [dfbd']2 | [Bdfb]2 [GBdg]2 [FBdf]2 [Bdgb]2 | %32
 [cdgc']2 [GBdg]2 [FBdf]2 [dfbd']2 | [Bdfb]2 [GBdg]2 [FBd^f]2 [Bdgb]2 | %34
 [cdgc']2 [GBdg]2 [FBcf]2 [dfbd']2 | [Bdfb]2 [GBdg]2 [FBdf]2 [Bdgb]2 |"_rit." !fermata![cegc']8 || %37
 [Bb]2 [Gg]2 [Ff]2 [dd']2 | [Bb]2 [Gg]2 [Ff]2 [Bb]2 | [cc']2 [Gg]2 [Ff]2 [dd']2 | %40
 [Bb]2 [Gg]2 [Ff]4 | !arpeggio![bb']8 |] %42
V:2
 B,,,2 B,,2 B,,,2 B,,2 | B,,,2 B,,2 B,,,2 B,,2 | B,,,2 B,,2 B,,,2 B,,2 | B,,,2 B,,2 B,,,2 B,,2 | %4
 B,,,2 B,,2 B,,,2 B,,2 |[M:6/4] B,,,2 B,,2 B,,,2 B,,2 B,,,2 B,,2 |[M:4/4] B,,,2 B,,2 B,,,2 B,,2 | %7
 B,,,2 B,,2 B,,,2 B,,2 | B,,,2 B,,2 B,,,2 B,,2 | B,,,2 B,,2 B,,,2 B,,2 | %10
 !arpeggio!B,,,2 B,,2 B,,,2 B,,2 | B,,,2 B,,2 B,,,2 B,,2 | B,,,2 B,,2 B,,,2 B,,2 | %13
 B,,,2 B,,2 B,,,2 B,,2 | B,,,,2 B,,2 B,,,2 B,,2 || (3B,,,B,,,B,,, B,,,2 B,,,2 [B,,,B,,]2 | %16
 (3B,,,B,,,B,,, B,,,2 B,,,2 [B,,,B,,]2 | (3B,,,B,,,B,,, B,,,2 B,,,2 [B,,,B,,]2 | %18
 (3B,,,B,,,B,,, B,,,2 B,,,2 [B,,,B,,]2 | (3B,,,B,,,B,,, B,,,2 B,,,2 [B,,,B,,]2 | %20
 (3B,,,B,,,B,,, B,,,2 B,,,2 [B,,,B,,]2 | (3B,,,B,,,B,,, B,,,2 B,,,2 [B,,,B,,]2 | %22
 (3B,,,B,,,B,,, B,,,2 B,,,2 [B,,,B,,]2 | %23
 (3B,,,B,,,B,,, B,,,2!<(! (3[B,,,,B,,,][B,,,,B,,,][B,,,,B,,,] [B,,,,B,,,]2!<)! | %24
!f! [B,,,,B,,,]2- (3[B,,,,B,,,][B,,,B,,][B,,,B,,] [B,,,B,,]2- (3:2:2[B,,,B,,]2 [B,,,,B,,,] | %25
 [B,,,,B,,,]2- (3[B,,,,B,,,][B,,,B,,][B,,,B,,] [B,,,B,,]2- (3[B,,,B,,][B,,,,B,,,][B,,,,B,,,] | %26
 [C,,,C,,]2- (3[C,,,C,,][C,,C,][C,,C,] [C,,C,]2- (3:2:2[C,,C,]2 [C,,,C,,] | %27
 [E,,,E,,]2- (3[E,,,E,,][E,,E,][E,,E,] [E,,E,]2!<(! E,,,E,,!<)! | %28
 (9:8:7[B,,,,B,,,]3/4B,,,/4D,,/4F,,/4B,,/4D,/4F,/4 (3:2:5[B,,B,][B,,,,B,,,]/[B,,,,B,,,]/[B,,,,B,,,]/[B,,,,B,,,]/ (3:2:5[B,,,,B,,,][B,,F,B,]/[B,,F,B,]/[B,,F,B,]/[B,,F,B,]/ (3[B,,B,][B,,,B,,][B,,,B,,] | %29
 (9:8:7[B,,,,B,,,]3/4B,,,/4D,,/4F,,/4B,,/4D,/4F,/4 (3:2:5[B,,B,][B,,,,B,,,]/[B,,,,B,,,]/[B,,,,B,,,]/[B,,,,B,,,]/ (3:2:5[B,,,,B,,,][B,,F,B,]/[B,,F,B,]/[B,,F,B,]/[B,,F,B,]/ (3:2:6[B,,B,]/[A,,A,]/[G,,G,]/[F,,F,]/[E,,E,]/[D,,D,]/ | %30
 (3:2:5[C,,C,][E,,,E,,]/[E,,,E,,]/[D,,,D,,]/[D,,,D,,]/ (3:2:5[C,,,C,,][C,,,C,,]/[C,,,C,,]/[C,,,C,,]/[C,,,C,,]/ (3:2:5[C,,C,][C,,C,]/[C,,C,]/[C,,C,]/[C,,C,]/ (3:2:5[C,,C,][B,,,B,,]/[B,,,B,,]/[C,,C,]/[C,,C,]/ | %31
 (3[D,,D,][D,,,D,,][D,,,D,,] (3[D,,B,,D,][D,,D,][D,,D,] (3[D,B,D][D,D][D,D] (3:2:6[D,D]/[C,C]/[B,,B,]/[A,,A,]/[G,,G,]/[F,,F,]/ | %32
 (9:8:7[E,,E,]3/4E,,/4G,,/4B,,/4E,/4G,/4B,/4 (3:2:5[E,E][E,,,E,,]/[E,,,E,,]/[E,,,E,,]/[E,,,E,,]/ (3[E,,,E,,][E,,B,,E,][E,,B,,E,] (3[E,,,E,,][_E,,,_E,,][=E,,,=E,,] | %33
 =F,,,4 =F,,4 | F,,,4 F,,4 | %35
 (3:2:5[G,,,G,,][G,,,G,,]/[G,,,G,,]/[G,,,G,,]/[G,,,G,,]/ (3:2:5[G,,,G,,][G,,,G,,]/[G,,,G,,]/[G,,,G,,]/[G,,,G,,]/ (3:2:5[G,,G,][G,,G,]/[G,,G,]/[G,,G,]/[G,,G,]/ (3[G,,G,][G,,,G,,][F,,,F,,] | %36
 !fermata![E,,,E,,]8 ||!pp! B,4 [Dd]4 | B,4 [Dd]4 | [B,B]4 [Dd]4 | [=F=f]4 E2 =C2 | [B,B]8 |] %42
V:3
 x8 | B,,,,8- | B,,,,8- | B,,,,6 B,,,,2 | B,,,,8 |[M:6/4] B,,,,12 |[M:4/4] B,,,,8 | x8 | x8 | %9
 B,,,,8 | B,,,,8 | B,,,,8 | x8 | x8 | x8 || B,,,,8 | B,,,,8 | B,,,,8 | B,,,,8 | B,,,,8 | B,,,,8 | %21
 B,,,,8 | B,,,,8 | B,,,,4 z4 | x8 | x8 | x8 | x8 | x8 | x8 | x8 | x8 | x8 | x8 | x8 | x8 | x8 || %37
 x8 | x8 | x8 | x8 | x8 |] %42
V:4
 x8 | x8 |!8vb(! x8 | x8 | x8 |[M:6/4] x12 |[M:4/4] x8 | x8 | x8 | x8 | x8 | x8 | x8 | x8 | x8 || %15
 x8 | x8 | x8 | x8 | x8 | x8 | x8 | x8 | x7!8vb)! x | x8 | x8 | x8 | x8 | %28
 (3z BB (3z BB (3x BB (3z Bc | (3z BB (3z BB (3z BB (3z Bc | (3z BB (3z BB (3z BB (3z Bc | %31
 (3z dd (3z dd (3z dd (3z dd | (3z ee (3z ee (3z ee (3z ee | (3z =ff (3z ff (3z =ff (3z ff | %34
 (3z ff (3z ff (3z ff (3z ff | (3z dd (3z dd (3z dd (3z dd | x8 || x8 | x8 | x8 | x8 | x8 |] %42

